myproject/site_static/site/img/favicon.svg

<svg fill="none" height="336" viewBox="0 0 337 336" width="337" xmlns="http://www.w3.org/2000/svg"><ellipse cx="168.5" cy="168" fill="#fff" rx="168.5" ry="168"/><g fill="#000"><path d="m79 244.311h179.537v22.6895h-179.537z"/><path d="m79 267h109.865v20.8985h-109.865z" transform="matrix(0 -1 1 0 -188 346)"/><path d="m237.639 267h109.865v20.8985h-109.865z" transform="matrix(0 -1 1 0 -29.361 504.639)"/><path d="m168.019 202.898-84.9016-79.548 19.2076-18.744 86.766 78.322z"/><path d="m258.497 120.344-87.114 78.715-18.272-18.082 86.728-77.591z"/><path d="m192.517 58.0181-21.665-19.2762-56.521 55.5295 18.524 16.1216z"/><path d="m224.814 89.6639-19.473-18.5098-58.421 52.5439 20.132 17.195z"/></g></svg>

<svg width="337" height="336" viewBox="0 0 337 336" fill="none" xmlns="http://www.w3.org/2000/svg">
<ellipse cx="168.5" cy="168" rx="168.5" ry="168" fill="white"/>
<rect x="79" y="244.311" width="179.537" height="22.6895" fill="black"/>
<rect x="79" y="267" width="109.865" height="20.8985" transform="rotate(-90 79 267)" fill="black"/>
<rect x="237.639" y="267" width="109.865" height="20.8985" transform="rotate(-90 237.639 267)" fill="black"/>
<path d="M168.019 202.898L83.1174 123.35L102.325 104.606L189.091 182.928L168.019 202.898Z" fill="black"/>
<path d="M258.497 120.344L171.383 199.059L153.111 180.977L239.839 103.386L258.497 120.344Z" fill="black"/>
<path d="M192.517 58.0181L170.852 38.7419L114.331 94.2714L132.855 110.393L192.517 58.0181Z" fill="black"/>
<path d="M224.814 89.6639L205.341 71.1541L146.92 123.698L167.052 140.893L224.814 89.6639Z" fill="black"/>
</svg>
